!!! OTL: Berkowitz396
!!! Chapter: 1
!!! Section: III
!!! Page: 98
!!! Mode: 
!!! Encoder: DJB
**kern
*staff1
*I"Piano
=1-
*clefG2
*k[b-e-a-]
*E-:
*M2/4
16e-/LL
16d/
16e-/
16f/JJ
16g/LL
16f/
16g/
16a-/JJ
=2
16b-\LL
16ee-\
16cc\
16ee-\JJ
16b-\LL
16ee-\
16cc\
16ee-\JJ
=3
16b-\LL
16cc\
16b-\
16a-\JJ
16g/LL
16a-/
16g/
16f/JJ
=4
8e-/L
8g/J
4f/
=5
16r
16en/LL
16f/
16g/JJ
16a-/LL
16g/
16a-/
16b-/JJ
=6
!!linebreak:original
16cc\LL
16dd\
16een\
16ff\JJ
16ee-\LL
16dd\
16cc\
16b-\JJ
=7
16ee-\LL
16dd\
16ee-\
16bn\JJ
16cc/LL
16b/
16cc/
16g/JJ
=8
16a-/LL
16g/
16a-/
16en/JJ
16f/LL
16e/J
8f/J
=9
16r
16e-/LL
16d/
16c/JJ
16B-/LL
16Bn/
16c/
16d/JJ
=10
8e-/L
8g/J
4e-/
==
*-
